X: 4
L:1/8
M:6/8
K:C
g|geg age|ccc G2c|Bcd A2B|cBA G2g|geg age|ccc G2c|
(Bcd) A2B|[E3c3][E3c3]::G[Ec][Ec] [Ec][Ec][Ec]|G[Ec][Ec] cBA|



